app/img/who-suits/4.svg

<svg width="68" height="70" viewBox="0 0 68 70" fill="none" xmlns="http://www.w3.org/2000/svg">
<path d="M60.1037 5.49401C59.6829 5.11531 59.0346 5.14935 58.6556 5.57043C58.2768 5.99138 58.311 6.63968 58.7321 7.01852C58.7325 7.01879 58.7327 7.0192 58.7332 7.01947L45.7826 19.9701L39.8761 14.0634C43.022 10.5983 44.8012 6.32209 44.8677 2.07504C48.4422 1.90784 51.871 2.73387 54.7896 4.26986C55.2912 4.53386 55.9108 4.34095 56.1745 3.84003C56.4384 3.33883 56.2458 2.71883 55.7448 2.45511C47.3913 -1.9411 37.2119 -0.292866 30.6377 6.27506C25.4392 11.4735 23.1033 19.2016 25.0314 26.7312C12.0468 25.225 0.804688 35.4227 0.804688 48.2925C0.804688 53.8066 2.87838 59.0632 6.62588 63.0859C7.01155 63.5001 7.66054 63.5234 8.07506 63.1371C8.4893 62.7512 8.51241 62.1025 8.12632 61.688C7.80545 61.3436 7.49839 60.9892 7.205 60.6257H11.3829C12.671 60.6257 13.8193 61.4489 14.222 62.6885L15.5148 66.667C14.1706 66.155 12.8803 65.4937 11.666 64.6886C11.1939 64.3755 10.5577 64.5048 10.2447 64.9767C9.93178 65.4487 10.0607 66.0849 10.5326 66.3978C14.0707 68.7433 18.2406 70.0001 22.5124 70.0001C36.6574 70.0001 47.1687 56.5553 43.4948 42.7158C50.1434 43.425 56.4887 40.9994 60.9273 36.5649C69.5885 27.896 69.243 13.7176 60.1037 5.49401V5.49401ZM42.8093 2.28107C42.6787 5.88583 41.0938 9.62239 38.4222 12.6097L32.8389 7.02645C35.5738 4.56476 39.0108 2.86881 42.8093 2.28107V2.28107ZM31.3888 8.47672L36.9721 14.06C33.9858 16.7306 30.2511 18.3154 26.6437 18.445C27.2317 14.6474 28.9274 11.211 31.3888 8.47672V8.47672ZM26.4374 20.5027C30.6853 20.4364 34.9612 18.6582 38.4252 15.5133L44.3321 21.4202L31.3887 34.3638C27.9869 30.5846 26.1962 25.6507 26.4374 20.5027ZM35.5129 42.9903L30.6814 44.56C30.3433 44.0115 29.8961 43.5217 29.3501 43.1249L25.4726 40.3078C24.8807 39.8778 24.2204 39.595 23.5379 39.4525V34.2873C24.2204 34.1447 24.8807 33.8618 25.4726 33.4317L27.2473 32.1424C29.2731 35.6309 32.2684 38.5172 35.8856 40.4101C35.8201 40.6858 35.3636 41.6178 35.5129 42.9903V42.9903ZM29.2292 48.1217L27.7481 52.68C27.3472 53.9138 26.2063 54.7427 24.9089 54.7427H20.116C18.8187 54.7427 17.6776 53.9138 17.2767 52.68L15.7956 48.1217C15.3946 46.888 15.8306 45.5466 16.8802 44.784L20.7576 41.9667C21.8015 41.2083 23.2223 41.2077 24.267 41.9667L28.1445 44.784C29.1942 45.5466 29.6301 46.8879 29.2292 48.1217V48.1217ZM25.7118 28.8967C25.8897 29.3728 26.0837 29.8409 26.2938 30.3003L24.267 31.7727C23.2195 32.5339 21.8066 32.5347 20.7577 31.7727L17.3778 29.317C20.0887 28.5827 22.9239 28.4403 25.7118 28.8967ZM15.0725 30.099C15.5657 30.5928 15.6395 30.5645 19.5524 33.4317C20.1443 33.8618 20.8047 34.1447 21.4871 34.2871V39.4524C20.8047 39.5948 20.1443 39.8777 19.5524 40.3077L15.675 43.1248C15.1289 43.5216 14.6817 44.0114 14.3436 44.56L9.5122 42.9903C9.58767 42.2971 9.52013 41.5809 9.29387 40.885C7.7993 36.3469 7.82801 36.2237 7.51275 35.6032C9.54009 33.2104 12.1282 31.3074 15.0725 30.099V30.099ZM6.05564 37.5548L7.34349 41.5187C7.73997 42.7389 7.31697 44.0877 6.25893 44.8564L2.87988 47.3114C3.0572 43.724 4.20137 40.3871 6.05564 37.5548ZM13.4526 59.0181C12.8166 58.7321 12.1147 58.5751 11.383 58.5751C6.52607 58.5945 6.48301 58.5285 5.79588 58.6383C4.13534 55.9608 3.14238 52.9198 2.90942 49.7469C3.53147 49.4307 3.54418 49.3396 7.46449 46.5153C8.05646 46.0852 8.53209 45.5456 8.87853 44.9405L13.6476 46.49C13.5424 47.2327 13.602 48.0057 13.8457 48.7553L15.3267 53.3136C15.542 53.9763 15.8844 54.5692 16.3209 55.0703L13.4526 59.0181ZM27.1864 67.3867C25.6878 67.7536 24.1227 67.9497 22.5124 67.9497C20.9235 67.9497 19.3568 67.7573 17.8386 67.3871C17.7304 66.6991 17.6499 66.6651 16.1723 62.055C15.9461 61.359 15.5799 60.7401 15.1115 60.2236L17.9559 56.3089C18.6155 56.6214 19.3495 56.7936 20.1161 56.7936H24.909C25.6757 56.7936 26.4098 56.6214 27.0693 56.3089L29.9135 60.2236C29.445 60.7401 29.0787 61.3592 28.8526 62.055C27.3737 66.669 27.294 66.702 27.1864 67.3867V67.3867ZM29.5125 66.6603L30.803 62.6886C31.2018 61.4613 32.3414 60.6258 33.6423 60.6258H37.8069C35.6405 63.307 32.7853 65.4088 29.5125 66.6603ZM39.2202 58.637C38.5387 58.5293 38.4902 58.5942 33.6423 58.5751C32.9106 58.5751 32.2087 58.7322 31.5727 59.0181L28.7044 55.0703C29.1409 54.5692 29.4833 53.9762 29.6984 53.3135L31.1796 48.7553C31.4231 48.0057 31.4827 47.2325 31.3777 46.49L36.1467 44.9405C36.4932 45.5456 36.9687 46.0852 37.5607 46.5152C41.5095 49.36 41.4942 49.4308 42.1159 49.7467C41.8774 52.991 40.8477 56.018 39.2202 58.637V58.637ZM38.7659 44.8563C37.7255 44.1003 37.2793 42.7564 37.6815 41.5187L37.7597 41.2778C38.8809 41.7325 40.049 42.0945 41.2547 42.3551C41.7631 43.9607 42.0613 45.6216 42.1444 47.311L38.7659 44.8563ZM46.6998 40.7654C41.56 41.0063 36.6239 39.221 32.8389 35.8141L45.7824 22.8705L51.6891 28.7771C48.5443 32.2413 46.766 36.5175 46.6998 40.7654ZM48.758 40.5591C48.8883 36.9538 50.4726 33.2172 53.1426 30.2307L58.726 35.8141C55.9917 38.2753 52.5557 39.9711 48.758 40.5591ZM60.1763 34.364L54.5929 28.7805C57.5805 26.1093 61.3169 24.5249 64.9217 24.3939C64.334 28.1923 62.638 31.6291 60.1763 34.364V34.364ZM65.1277 22.3352C60.882 22.4017 56.6046 24.1809 53.1393 27.3268L47.2327 21.4202L60.1826 8.47029C63.5327 12.2002 65.3697 17.1611 65.1277 22.3352V22.3352Z" fill="#49B3F7"/>
</svg>

<svg width="68" height="70" fill="none" xmlns="http://www.w3.org/2000/svg"><path d="M60.104 5.494a1.025 1.025 0 10-1.372 1.525h.001L45.783 19.97l-5.907-5.907c3.146-3.465 4.925-7.74 4.992-11.988A19.404 19.404 0 0154.79 4.27a1.025 1.025 0 10.955-1.815C47.39-1.94 37.212-.293 30.638 6.275c-5.199 5.198-7.535 12.927-5.607 20.456C12.047 25.225.805 35.423.805 48.292a21.645 21.645 0 005.82 14.794 1.025 1.025 0 101.501-1.398 20.06 20.06 0 01-.921-1.062h4.178a2.98 2.98 0 012.839 2.063l1.293 3.978a19.564 19.564 0 01-3.849-1.978 1.025 1.025 0 00-1.133 1.709A21.688 21.688 0 0022.513 70c14.144 0 24.656-13.445 20.982-27.284a21.435 21.435 0 0017.432-6.151c8.661-8.669 8.316-22.847-.823-31.071zM42.809 2.281c-.13 3.605-1.715 7.341-4.387 10.329L32.84 7.026a19.312 19.312 0 019.97-4.745zM31.39 8.477l5.583 5.583c-2.986 2.67-6.72 4.255-10.328 4.385a19.31 19.31 0 014.745-9.968zm-4.952 12.026c4.248-.067 8.524-1.845 11.988-4.99l5.907 5.907L31.39 34.364a19.288 19.288 0 01-4.952-13.861zm9.076 22.487l-4.832 1.57a5.045 5.045 0 00-1.33-1.435l-3.878-2.817a5.034 5.034 0 00-1.935-.855v-5.166a5.035 5.035 0 001.935-.855l1.774-1.29a21.575 21.575 0 008.639 8.268c-.066.276-.522 1.208-.373 2.58zm-6.284 5.132l-1.48 4.558a2.978 2.978 0 01-2.84 2.063h-4.793a2.978 2.978 0 01-2.84-2.063l-1.48-4.558a2.978 2.978 0 011.084-3.338l3.878-2.817a2.99 2.99 0 013.509 0l3.878 2.817a2.978 2.978 0 011.084 3.338zm-3.517-19.225c.178.476.372.944.582 1.403l-2.027 1.473a2.98 2.98 0 01-3.51 0l-3.38-2.456a19.678 19.678 0 018.335-.42zm-10.64 1.202c.494.494.568.465 4.48 3.333.592.43 1.253.713 1.935.855v5.165a5.033 5.033 0 00-1.935.856l-3.877 2.817a5.043 5.043 0 00-1.331 1.435l-4.832-1.57a5.036 5.036 0 00-.218-2.105c-1.495-4.538-1.466-4.661-1.781-5.282a19.749 19.749 0 017.56-5.504zm-9.016 7.456l1.287 3.964a2.981 2.981 0 01-1.084 3.337l-3.38 2.455a19.533 19.533 0 013.177-9.756zm7.397 21.463a5.038 5.038 0 00-2.07-.443c-4.857.02-4.9-.047-5.587.063a19.564 19.564 0 01-2.887-8.891c.622-.316.635-.407 4.555-3.232A5.04 5.04 0 008.88 44.94l4.769 1.55a5.032 5.032 0 00.198 2.265l1.48 4.559c.216.662.558 1.255.995 1.756l-2.868 3.948zm13.733 8.369a19.717 19.717 0 01-9.348 0c-.108-.688-.188-.722-1.666-5.332a5.04 5.04 0 00-1.06-1.831l2.844-3.915c.66.312 1.393.485 2.16.485h4.793c.767 0 1.5-.173 2.16-.485l2.845 3.915a5.039 5.039 0 00-1.061 1.831c-1.48 4.614-1.559 4.647-1.667 5.332zm2.326-.727l1.291-3.971a2.981 2.981 0 012.84-2.063h4.164a19.747 19.747 0 01-8.295 6.034zm9.708-8.023c-.681-.108-.73-.043-5.578-.062a5.04 5.04 0 00-2.07.443l-2.868-3.948a5.038 5.038 0 00.994-1.757l1.482-4.558c.243-.75.303-1.523.198-2.265l4.769-1.55a5.038 5.038 0 001.414 1.575c3.949 2.845 3.933 2.916 4.555 3.232a19.524 19.524 0 01-2.896 8.89zm-.454-13.78a2.984 2.984 0 01-1.084-3.338l.078-.241c1.12.455 2.289.816 3.495 1.077a19.58 19.58 0 01.89 4.956l-3.38-2.455zm7.934-4.092a19.289 19.289 0 01-13.861-4.95L45.782 22.87l5.907 5.906c-3.145 3.464-4.923 7.74-4.99 11.988zm2.058-.206c.13-3.605 1.715-7.342 4.385-10.328l5.583 5.583a19.31 19.31 0 01-9.968 4.745zm11.418-6.195l-5.583-5.583c2.987-2.672 6.724-4.256 10.329-4.387a19.31 19.31 0 01-4.746 9.97zm4.952-12.029c-4.246.067-8.523 1.846-11.989 4.992l-5.906-5.907 12.95-12.95a19.396 19.396 0 014.945 13.865z" fill="#49B3F7"/></svg>
